packages/token-projects/images/usn.svg

<svg viewBox='0 0 38 38' fill='none' xmlns='http://www.w3.org/2000/svg'><rect width='38' height='38' rx='19' fill='black'/><path d='M14.8388 10.6601C14.4203 10.1008 13.6748 9.86519 12.9933 10.0768C12.3119 10.2885 11.85 10.8991 11.85 11.5883V14.7648H8V17.9412H11.85V20.0589H8V23.2353H11.85V28H15.15V16.5108L23.1612 27.2165C23.5797 27.7758 24.3252 28.0114 25.0067 27.7997C25.6881 27.5881 26.15 26.9775 26.15 26.2882V23.2353H30V20.0589H26.15V17.9412H30V14.7648H26.15V10.0001H22.85V21.3658L14.8388 10.6601Z' fill='white'/></svg>

<svg viewBox="0 0 38 38" fill="none" xmlns="http://www.w3.org/2000/svg"><rect width="38" height="38" rx="19" fill="#000"/><path d="M14.839 10.66a1.686 1.686 0 0 0-1.846-.583c-.681.212-1.143.822-1.143 1.511v3.177H8v3.176h3.85v2.118H8v3.176h3.85V28h3.3V16.51l8.011 10.706c.419.56 1.164.795 1.846.584.681-.212 1.143-.823 1.143-1.512v-3.053H30V20.06h-3.85V17.94H30v-3.176h-3.85V10h-3.3v11.366L14.839 10.66Z" fill="#fff"/></svg>
